www/assets/icons/hdr_auto.svg

<svg xmlns="http://www.w3.org/2000/svg" width="24" height="24" viewBox="0 0 24 24" fill='currentColor'><path d="M12.04 8.04h-.09l-1.6 4.55h3.29z"/><path d="M12 2C6.48 2 2 6.48 2 12s4.48 10 10 10 10-4.48 10-10S17.52 2 12 2m3.21 15-.98-2.81H9.78l-1 2.81h-1.9l4.13-11h1.97l4.13 11z"/></svg>

<svg width="24" height="24" viewBox="0 0 24 24" xmlns="http://www.w3.org/2000/svg" fill='currentColor'><path d="M12.04 8.04H11.95L10.35 12.59H13.64L12.04 8.04Z"/><path d="M12 2C6.48 2 2 6.48 2 12C2 17.52 6.48 22 12 22C17.52 22 22 17.52 22 12C22 6.48 17.52 2 12 2ZM15.21 17L14.23 14.19H9.78L8.78 17H6.88L11.01 6H12.98L17.11 17H15.21Z"/></svg>
